img/logos/pinterest.svg

<?xml version="1.0" encoding="UTF-8" standalone="no"?>
<svg width="250px" height="64px" viewBox="0 0 250 64" version="1.1" xmlns="http://www.w3.org/2000/svg" xmlns:xlink="http://www.w3.org/1999/xlink">
    <!-- Generator: Sketch 48.1 (47250) - http://www.bohemiancoding.com/sketch -->
    <title>pinterest-logo</title>
    <desc>Created with Sketch.</desc>
    <defs>
        <polygon id="path-1" points="0 63.109958 0 0 249.428653 0 249.428653 63.109958"></polygon>
    </defs>
    <g id="Page-1" stroke="none" stroke-width="1" fill="none" fill-rule="evenodd">
        <g id="pinterest-logo">
            <g id="g10" transform="translate(125.000000, 31.750302) scale(-1, 1) rotate(-180.000000) translate(-125.000000, -31.750302) translate(0.000000, 0.009069)">
                <g id="g12">
                    <g id="g14">
                        <g id="g16-Clipped">
                            <mask id="mask-2" fill="white">
                                <use xlink:href="#path-1"></use>
                            </mask>
                            <g id="path18"></g>
                            <g id="g16" mask="url(#mask-2)" fill="#7C7C7C" fill-rule="nonzero">
                                <path d="M130.561024,33.1031627 C133.205457,33.1031627 134.123209,31.4989707 134.123209,29.585395 C134.123209,26.3435171 131.610172,24.3674682 127.678791,24.3674682 C126.270926,24.3674682 124.311281,24.7023651 123.144846,25.0884095 C123.632943,28.0678594 125.54543,33.1031224 130.561024,33.1031224 M187.375404,33.1031224 C189.793723,33.1031224 190.939201,31.4989304 190.939201,29.5853547 C190.939201,26.3434768 188.430194,24.3674279 184.502441,24.3674279 C183.087724,24.3674279 181.12687,24.7023248 179.968092,25.0883691 C180.452965,28.067819 182.611718,33.1030821 187.375404,33.1030821 M241.235404,32.8327543 L247.293697,32.8327543 C248.125195,32.8327543 248.613293,33.1687395 248.794667,33.9411506 C249.066325,35.0593008 249.550795,37.0068539 249.691057,37.5365061 C249.869207,38.2322163 249.464541,38.7640853 248.696322,38.7640853 L242.712594,38.7640853 C243.142652,40.4749655 244.822174,46.0444353 244.822174,49.670705 C244.822174,56.9115558 238.670776,63.0702088 229.939435,63.0702088 C220.088008,63.0702088 213.672207,56.458524 213.672207,47.1508164 C213.672207,44.4338347 214.68508,41.2738976 215.945428,39.3045796 C215.421458,39.3417411 214.879755,39.3591933 214.321929,39.3591933 C206.832395,39.3591933 202.114657,35.2931926 202.114657,29.379596 C202.114657,23.8311656 206.491008,21.6768462 210.606182,20.2403646 C214.26389,18.9666359 217.630593,18.3713666 217.630593,15.5157749 C217.630593,13.5899464 215.77937,12.4585358 212.155518,12.4585358 C207.850104,12.4585358 205.48136,14.4851679 204.884035,15.2529842 C205.288701,15.5736937 205.892474,16.3384065 205.892474,17.6100797 C205.892474,19.3866576 204.648652,20.8363997 202.329081,20.8363997 C200.364197,20.8363997 198.70523,19.2355127 198.287264,17.1308091 C195.139418,14.5528405 191.699762,12.879807 186.827252,12.879807 C182.0152,12.879807 179.522719,15.382324 179.522719,20.6954117 C180.650865,20.3540659 183.585495,19.9404527 185.522972,19.9404527 C193.655779,19.9404527 199.196552,23.635322 199.196552,31.0393288 C199.196552,35.0175848 195.704096,39.1951104 188.792539,39.1951104 L188.77279,39.1951104 C179.682731,39.1951104 174.598215,33.4378984 172.370539,27.1047234 C171.747822,27.2569969 171.124299,27.4024588 170.496342,27.5426004 C170.997337,28.9450643 171.357264,30.5754146 171.357264,32.3731931 C171.357264,35.5067705 169.419787,39.1952716 164.235717,39.1952716 C160.624763,39.1952716 157.199214,36.8341053 154.826037,33.2889299 C155.414494,35.6008028 155.805456,37.1369998 155.836088,37.2364733 C155.986024,37.8426251 155.7321,38.5188677 154.79218,38.5188677 L149.470266,38.5188677 C148.717362,38.5188677 148.176868,38.2540215 147.95801,37.3843133 C147.816941,36.8131063 145.990707,29.6432734 144.206391,22.6583614 C143.091546,18.3037746 137.294834,12.8798876 130.001184,12.8798876 C125.194774,12.8798876 122.709951,15.5441096 122.709951,20.8619532 C123.965865,20.3661575 126.767085,19.9404124 128.696903,19.9404124 C137.16223,19.9404124 142.376932,23.6352817 142.376932,31.0392885 C142.376932,35.0175445 138.884476,39.1950701 131.977353,39.1950701 L131.956395,39.1950701 C121.724083,39.1950701 115.45459,31.2440395 114.386902,22.2301577 C113.944753,18.4828511 110.783607,13.3404162 107.354833,13.3404162 C105.684984,13.3404162 104.751916,14.3864602 104.751916,16.1699706 C104.751916,17.7070946 105.83371,21.4656866 107.02312,26.1858427 C107.420531,27.7591609 108.022289,30.1640988 108.691761,32.8325931 L114.264374,32.8325931 C115.087006,32.8325931 115.572685,33.1685783 115.760105,33.9409894 C116.027732,35.0591396 116.513814,37.0066927 116.652868,37.5363449 C116.83666,38.2320551 116.429576,38.7639241 115.654908,38.7639241 L110.173384,38.7639241 C110.173384,38.7639241 112.69287,48.8156679 112.753328,49.074025 C112.99919,50.0969741 112.141493,50.6858348 111.24873,50.4963998 C111.24873,50.4963998 107.01909,49.6705438 106.231121,49.5040828 C105.446376,49.3489073 104.833735,48.9132068 104.54394,47.7741784 C104.508875,47.6331098 102.302964,38.7639241 102.302964,38.7639241 L97.9157302,38.7639241 C97.0830223,38.7639241 96.6013737,38.4224171 96.4167753,37.6489177 C96.1455205,36.536249 95.6541987,34.5864791 95.5171606,34.0568672 C95.3357866,33.3609556 95.7436765,32.8325931 96.5171356,32.8325931 L100.824968,32.8325931 C100.795545,32.7045834 99.2711981,26.9032774 98.0370492,21.7063094 C97.4582648,19.202946 95.5119209,13.3570623 92.3245761,13.3570623 C90.4229711,13.3570623 89.6200891,14.3189084 89.6200891,16.3781073 C89.6200891,19.6209524 92.8090461,27.7405801 92.8090461,31.421262 C92.8090461,36.3417355 90.1714659,39.1953522 84.7620889,39.1953522 C81.3494374,39.1953522 77.8186913,36.9917797 76.3185273,35.0596233 C76.3185273,35.0596233 76.7715591,36.6373347 76.9331834,37.2499756 C77.0944047,37.8934098 76.7473759,38.5192708 75.90701,38.5192708 L70.6201611,38.5192708 C69.4899999,38.5192708 69.1836795,37.9197291 69.0204429,37.2598907 C68.9507147,36.9919007 67.0479005,29.5099837 65.2216665,22.3283817 C63.9657527,17.4091174 60.9295529,13.2995869 57.6809441,13.2995869 C56.0046458,13.2995869 55.263834,14.3499032 55.263834,16.1354289 C55.263834,17.6727142 56.2529266,21.4662106 57.4447549,26.1863667 C58.8876854,31.9206046 60.1568999,36.6439851 60.2959533,37.2010047 C60.4732967,37.9088467 60.1568999,38.519432 59.2476119,38.519432 L53.9281157,38.519432 C52.9664307,38.519432 52.6149683,38.0182756 52.4158601,37.3137386 C52.4158601,37.3137386 50.9169052,31.6516472 49.3316969,25.3374157 C48.1838014,20.7575222 46.9125716,16.0909722 46.9125716,13.9036024 C46.9125716,9.98866604 48.6650469,7.04363688 53.4968488,7.04363688 C57.2190451,7.04363688 60.1702007,8.93435946 62.4196406,11.3434085 C62.0903461,10.037113 61.8791463,9.21117641 61.8549631,9.13100912 C61.6623036,8.38253932 61.8956714,7.72963344 62.7763427,7.72963344 L68.2187701,7.72963344 C69.165139,7.72963344 69.52829,8.10685093 69.7261891,8.93419824 C69.9144149,9.71986985 73.9816248,25.7137062 73.9816248,25.7137062 C75.058986,30.0114625 77.7122853,32.856212 81.4574557,32.856212 C83.2280684,32.856212 84.7653133,31.6790145 84.5835363,29.4030134 C84.3856372,26.8888078 81.3647534,17.8684368 81.3647534,13.9120665 C81.3647534,10.9186307 82.4719406,7.04323383 88.1078335,7.04323383 C91.9557825,7.04323383 94.7884404,8.8868798 96.8411904,11.2619917 C97.5916754,8.73694401 99.5908193,7.04323383 103.250542,7.04323383 C109.334227,7.04323383 113.002818,10.653865 115.152704,14.2752175 C116.945887,10.0653268 121.133207,7.04323383 127.275738,7.04323383 C133.534348,7.04323383 138.379047,9.68133797 141.811449,13.2687936 C141.194374,10.8509581 140.776005,9.20722648 140.738924,9.07059145 C140.542234,8.31692226 140.873544,7.7172194 141.761873,7.7172194 L147.150694,7.7172194 C147.883848,7.7172194 148.412251,8.09572666 148.601686,8.87599736 C148.695597,9.25244905 149.476714,12.2624101 150.579468,16.5368296 C152.68139,24.71357 156.058976,33.1994521 161.133819,33.1994521 C162.925794,33.1994521 163.663381,32.2016133 163.663381,30.6205565 C163.663381,29.879785 163.447748,29.2408651 163.256297,28.888516 C160.796867,29.3797572 158.817472,28.1687033 158.817472,25.5382974 C158.817472,23.8248377 160.620732,22.2688508 163.05074,22.2688508 C164.909622,22.2688508 166.448076,22.721802 167.672148,23.5491896 C168.814401,23.3117509 170.042101,23.046945 171.279474,22.763397 C171.091652,21.5337623 170.996128,20.3236354 170.996128,19.1834382 C170.996128,12.6152832 175.927484,7.04307261 184.327113,7.04307261 C190.915017,7.04307261 195.13176,9.25232814 199.090549,12.5399122 C200.966761,9.47183091 205.705458,6.99470622 211.916911,6.99470622 C220.424961,6.99470622 225.257972,11.4238579 225.257972,17.2709507 C225.257972,22.568682 220.908625,24.5174443 216.423852,26.1377182 C212.780251,27.4528405 209.739617,28.1695094 209.739617,30.7454224 C209.739617,32.8612905 211.405033,33.8230964 214.251798,33.8230964 C216.099797,33.8230964 217.480657,33.4291925 218.229127,33.2213379 C218.964296,31.3787802 220.483,29.343684 223.077454,29.343684 C225.273288,29.343684 226.258753,31.0768127 226.258753,32.6786268 C226.258753,37.2347402 218.67571,37.7095369 218.67571,47.4815618 C218.67571,53.5527522 222.108917,58.5594791 229.231673,58.5594791 C234.177136,58.5594791 237.410429,55.4249344 237.410429,50.3666167 C237.410429,46.1925977 234.875224,38.7643271 234.875224,38.7643271 L230.573034,38.7643271 C229.747984,38.7643271 229.26029,38.4228201 229.072064,37.6493207 C228.800809,36.5366521 228.314727,34.5868822 228.17245,34.0572703 C227.995509,33.3613586 228.395741,32.8329962 229.176858,32.8329962 L233.37506,32.8329962 C233.37506,32.8329962 229.033774,16.8148557 229.033774,13.9031994 C229.033774,9.98826298 231.238475,7.04766742 236.063425,7.04766742 C242.897595,7.04766742 247.166735,11.4808496 249.024407,17.9385681 C249.16346,18.4395229 248.884548,18.8422536 248.375894,18.8422536 L245.772977,18.8422536 C245.253038,18.8422536 244.946718,18.5492743 244.818547,18.0426364 C244.229283,15.7504325 242.771843,13.3410208 239.899686,13.3410208 C238.229836,13.3410208 237.295559,14.3870647 237.295559,16.1705752 C237.295559,17.7076992 238.315283,21.3119218 239.569182,26.1864473 C240.164088,28.5049302 241.227746,32.8331977 241.227746,32.8331977" id="path22"></path>
                                <path d="M57.9614691,41.809515 C55.248921,41.809515 53.2006047,44.0932144 53.3944732,46.9073319 C53.5915663,49.7170158 55.9437848,51.9970878 58.6518992,51.9970878 C61.3717023,51.9970878 63.4123606,49.7170158 63.2229256,46.9073319 C63.0314754,44.0932144 60.6760324,41.809515 57.9614691,41.809515 Z" id="path24"></path>
                                <path d="M0,39.9949695 C0,34.3788261 2.98920378,27.3818225 7.77610547,25.1553566 C8.50474505,24.8162276 8.88982209,24.9650349 9.05499329,25.6651786 C9.18316421,26.1992241 9.83199926,28.7976275 10.1207466,30.0108982 C10.215988,30.3981921 10.1689114,30.7308722 9.8527565,31.1137727 C8.27722152,33.0263811 7.00792637,36.562649 7.00792637,39.8539815 C7.00792637,48.3027827 13.406396,56.4783139 24.3053577,56.4783139 C33.7235019,56.4783139 40.3093913,50.0677527 40.3093913,40.8934557 C40.3093913,30.5265242 35.0825973,23.3477436 28.2681768,23.3477436 C24.5054333,23.3477436 21.6891393,26.4529461 22.5915755,30.2746159 C23.6758692,34.8262958 25.7668689,39.7463663 25.7668689,43.0268163 C25.7668689,45.9743444 24.1867794,48.4277292 20.9173328,48.4277292 C17.0736965,48.4277292 13.9828024,44.449191 13.9828024,39.1188124 C13.9828024,35.7259105 15.1316652,33.433747 15.1316652,33.433747 C15.1316652,33.433747 11.3360326,17.374092 10.6424586,14.3850495 C9.45909443,9.31222184 10.7972311,1.0931609 10.9153257,0.375323144 C10.9753806,-0.00999571947 11.4034231,-0.140181904 11.645255,0.183816444 C12.0184823,0.681627457 16.5959575,7.54638933 17.8905644,12.5103926 C18.3500451,14.301561 20.2713997,21.618992 20.2713997,21.618992 C21.5273135,19.2357384 25.1709144,17.2204723 29.053929,17.2204723 C40.6090613,17.2204723 48.939768,27.8522098 48.939768,41.0530083 C48.939768,53.7141186 38.6103205,63.186272 25.3164167,63.186272 C8.77849879,63.1866508 0,52.0905961 0,39.9949695 Z" id="path26"></path>
                            </g>
                        </g>
                    </g>
                </g>
            </g>
        </g>
    </g>
</svg>

<svg width="250" height="64" xmlns="http://www.w3.org/2000/svg" xmlns:xlink="http://www.w3.org/1999/xlink"><defs><path id="a" d="M0 63.11V0h249.43v63.11z"/></defs><g transform="matrix(1 0 0 -1 0 63.491)" fill="none" fill-rule="evenodd"><mask id="b" fill="#fff"><use xlink:href="#a"/></mask><g fill="#7C7C7C" fill-rule="nonzero" mask="url(#b)"><path d="M130.56 33.103c2.644 0 3.562-1.604 3.562-3.518 0-3.242-2.513-5.218-6.444-5.218-1.408 0-3.368.335-4.534.721.488 2.98 2.4 8.015 7.416 8.015m56.814 0c2.418 0 3.564-1.604 3.564-3.518 0-3.242-2.51-5.218-6.437-5.218-1.415 0-3.376.335-4.534.721.485 2.98 2.643 8.015 7.407 8.015m53.86-.27h6.058c.832 0 1.32.336 1.501 1.108.272 1.118.757 3.066.897 3.595.178.696-.227 1.228-.995 1.228h-5.984c.43 1.71 2.11 7.28 2.11 10.907 0 7.24-6.151 13.4-14.883 13.4-9.851 0-16.267-6.612-16.267-15.92 0-2.716 1.013-5.876 2.273-7.845a22.98 22.98 0 0 1-1.623.054c-7.49 0-12.207-4.066-12.207-9.98 0-5.548 4.376-7.702 8.491-9.138 3.658-1.274 7.025-1.87 7.025-4.725 0-1.926-1.852-3.057-5.476-3.057-4.305 0-6.674 2.026-7.271 2.794.405.32 1.008 1.086 1.008 2.357 0 1.777-1.243 3.227-3.563 3.227-1.965 0-3.624-1.601-4.042-3.706-3.148-2.578-6.587-4.251-11.46-4.251-4.812 0-7.304 2.502-7.304 7.816 1.128-.342 4.062-.755 6-.755 8.133 0 13.674 3.695 13.674 11.099 0 3.978-3.493 8.155-10.404 8.155h-.02c-9.09 0-14.175-5.757-16.402-12.09a94.89 94.89 0 0 1-1.874.438 14.34 14.34 0 0 1 .86 4.83c0 3.134-1.937 6.823-7.12 6.823-3.612 0-7.037-2.361-9.41-5.906.588 2.312.98 3.848 1.01 3.947.15.606-.104 1.283-1.044 1.283h-5.322c-.753 0-1.293-.265-1.512-1.135a7669.79 7669.79 0 0 0-3.752-14.726c-1.115-4.355-6.911-9.779-14.205-9.779-4.806 0-7.291 2.665-7.291 7.983 1.256-.496 4.057-.922 5.987-.922 8.465 0 13.68 3.695 13.68 11.099 0 3.978-3.493 8.156-10.4 8.156h-.021c-10.232 0-16.502-7.951-17.569-16.965-.442-3.747-3.603-8.89-7.032-8.89-1.67 0-2.603 1.046-2.603 2.83 0 1.537 1.082 5.295 2.271 10.016.398 1.573 1 3.978 1.669 6.647h5.572c.823 0 1.309.336 1.496 1.108.268 1.118.754 3.066.893 3.595.184.696-.223 1.228-.998 1.228h-5.482s2.52 10.052 2.58 10.31c.246 1.023-.612 1.612-1.504 1.422 0 0-4.23-.826-5.018-.992-.785-.155-1.397-.59-1.687-1.73l-2.241-9.01h-4.387c-.833 0-1.315-.342-1.5-1.115a393.889 393.889 0 0 0-.899-3.592c-.181-.696.227-1.225 1-1.225h4.308c-.03-.128-1.554-5.929-2.788-11.126-.579-2.503-2.525-8.349-5.713-8.349-1.901 0-2.704.962-2.704 3.021 0 3.243 3.189 11.362 3.189 15.043 0 4.92-2.638 7.774-8.047 7.774-3.413 0-6.943-2.203-8.444-4.135 0 0 .453 1.577.615 2.19.161.643-.186 1.27-1.026 1.27H70.62c-1.13 0-1.437-.6-1.6-1.26-.07-.268-1.972-7.75-3.799-14.932-1.255-4.92-4.292-9.029-7.54-9.029-1.677 0-2.417 1.05-2.417 2.836 0 1.537.989 5.33 2.18 10.05 1.443 5.735 2.713 10.459 2.852 11.016.177.708-.14 1.318-1.049 1.318h-5.319c-.962 0-1.313-.5-1.512-1.205 0 0-1.5-5.662-3.085-11.976-1.147-4.58-2.419-9.247-2.419-11.434 0-3.915 1.753-6.86 6.585-6.86 3.722 0 6.673 1.89 8.922 4.3a189.31 189.31 0 0 0-.564-2.213c-.193-.748.04-1.401.921-1.401h5.443c.946 0 1.31.377 1.507 1.204.188.786 4.255 16.78 4.255 16.78 1.078 4.298 3.731 7.143 7.476 7.143 1.77 0 3.308-1.177 3.126-3.453-.198-2.515-3.219-11.535-3.219-15.491 0-2.994 1.108-6.87 6.744-6.87 3.847 0 6.68 1.844 8.733 4.22.75-2.525 2.75-4.22 6.41-4.22 6.083 0 9.752 3.611 11.901 7.233 1.794-4.21 5.98-7.232 12.123-7.232 6.259 0 11.103 2.638 14.536 6.225-.617-2.417-1.035-4.061-1.072-4.198-.197-.754.135-1.353 1.023-1.353h5.389c.733 0 1.261.378 1.45 1.159.095.376.876 3.386 1.978 7.66 2.102 8.177 5.48 16.663 10.554 16.663 1.792 0 2.53-.998 2.53-2.579 0-.74-.216-1.38-.407-1.732-2.46.492-4.439-.72-4.439-3.35 0-1.713 1.803-3.27 4.233-3.27 1.86 0 3.398.454 4.622 1.281 1.142-.237 2.37-.502 3.607-.786a23.881 23.881 0 0 1-.283-3.58c0-6.568 4.931-12.14 13.33-12.14 6.589 0 10.806 2.21 14.764 5.497 1.876-3.068 6.615-5.545 12.826-5.545 8.508 0 13.34 4.43 13.34 10.276 0 5.298-4.349 7.246-8.833 8.867-3.644 1.315-6.685 2.032-6.685 4.607 0 2.116 1.666 3.078 4.513 3.078 1.848 0 3.229-.394 3.977-.602.735-1.842 2.254-3.877 4.848-3.877 2.196 0 3.182 1.733 3.182 3.335 0 4.556-7.583 5.03-7.583 14.803 0 6.07 3.433 11.078 10.556 11.078 4.945 0 8.178-3.135 8.178-8.193 0-4.174-2.535-11.602-2.535-11.602h-4.302c-.825 0-1.313-.342-1.501-1.115a272.852 272.852 0 0 0-.9-3.592c-.177-.696.224-1.225 1.005-1.225h4.198s-4.341-16.018-4.341-18.93c0-3.915 2.204-6.855 7.03-6.855 6.834 0 11.102 4.433 12.96 10.89.14.502-.14.904-.648.904h-2.603c-.52 0-.826-.293-.954-.8-.59-2.291-2.047-4.7-4.92-4.7-1.67 0-2.603 1.045-2.603 2.829 0 1.537 1.02 5.141 2.273 10.016a917.508 917.508 0 0 1 1.659 6.647M57.961 41.81c-2.712 0-4.76 2.284-4.567 5.098.197 2.81 2.55 5.09 5.257 5.09 2.72 0 4.76-2.28 4.571-5.09-.191-2.814-2.547-5.098-5.261-5.098zM0 39.995c0-5.616 2.99-12.613 7.776-14.84.729-.34 1.114-.19 1.279.51.128.534.777 3.132 1.066 4.346.095.387.048.72-.268 1.102-1.576 1.913-2.845 5.45-2.845 8.74 0 8.45 6.399 16.625 17.297 16.625 9.418 0 16.004-6.411 16.004-15.585 0-10.367-5.227-17.546-12.041-17.546-3.763 0-6.579 3.105-5.677 6.927 1.085 4.551 3.176 9.471 3.176 12.752 0 2.947-1.58 5.4-4.85 5.4-3.843 0-6.934-3.978-6.934-9.308 0-3.393 1.149-5.686 1.149-5.686s-3.796-16.06-4.49-19.049c-1.183-5.072.155-13.292.273-14.01.06-.385.488-.515.73-.191.373.498 4.95 7.363 6.246 12.327.459 1.791 2.38 9.109 2.38 9.109 1.256-2.384 4.9-4.399 8.783-4.399 11.555 0 19.886 10.632 19.886 23.833 0 12.661-10.33 22.133-23.623 22.133C8.779 63.185 0 52.089 0 39.994z"/></g></g></svg>
